!!!COM: Franz Schubert
!!!CNT: Deutsch
!!!TXO: Deutsch
!!!OTL: "Der Fischer"
!!!LYR: Johann Wolfgang von Goethe
!!!OPS: Op. 5
!!!ONM: No. 3
!!!ENC: Ben Fuhrman
!!!YOR: Schubert Lieder - Dietrich Fischer-Dieskau, and Elmar Budde, eds.
!!!YOR: New York: C. F. Peters, Vol. 2
!!!ODT: 1815/
!!NB: Only vocal melody encoded.
!!NB: First instance of melodic material only encoded.
!!NB: Original Key: B-flat Major
**kern
*clef G2
*k[b-e-a-d-]
*M2/4
!!created: 08/04/06 5:00
!!proofed and posted: 08/04/06 5:00
!!edit time: 45 minutes
=
4.r
{8e
=1
8.a
16e
8e
8e
=2
8.a
16e
8e
8e
=3
8a
8b
8cc
8dd
=4
4b}
8r
{8e
=5
8.a
16e
8e
8e
=6
8.a
16e
8e
8e
=7
8a
8cc
8b
16a
16f
=8
4e}
8r
{8e
=9
8.g
16g
8a
8a
=10
8.b
16b
8cc
8a
=11
8.dd
16dd
16cc
16b
16cc
16a
=12
4dd}
8r
{8ff
=13
8.b
16cc
16b
16a
16g
16a
=14
8.dd
16g
8a
8a
=15
8.an
16an
(4b
=16
16a
16g)
16f
16g
4a}
!! rest to measure 18
=18
4r
8r
{8e
=19
8.a
16e
8e
8e
=20
8.a
16e
8e
8e
=21
8a
8b
8cc
8dd
=22
4b}
8r
{8e
=23
8.a
16e
8e
8e
=24
8.a
16e
8e
8e
=25
8a
8cc
8b
16a
16f
=26
4e}
8r
{8e
=27
8.g
16g
8a
8a
=28
8.b
16b
8cc
8a
=29
8.dd
16dd
16cc
16b
16cc
16a
=30
4dd}
8r
{8ff
=31
8.b
16cc
16b
16a
16g
16a
=32
8.dd
16g
8a
8a
=33
8.an
16an
(4b
=34
16a
16g)
16f
16g
4a}
!! rest to measure 36
=36
4r
8r
{8e
=37
8.a
16e
8e
8e
=38
8.a
16e
8e
8e
=39
8a
8b
8cc
8dd
=40
4b}
8r
{8e
=41
8.a
16e
8e
8e
=42
8.a
16e
8e
8e
=43
8a
8cc
8b
16a
16f
=44
4e}
8r
{8e
=45
8.g
16g
8a
8a
=46
8.b
16b
8cc
8a
=47
8.dd
16dd
16cc
16b
16cc
16a
=48
4dd}
8r
{8ff
=49
8.b
16cc
16b
16a
16g
16a
=50
8.d
16g
8a
8a
=51
8.an
16an
(4b
=52
16a
16g)
16f
16g
4a}
==
*-
